X: 17924
T: House On Lonely Hill, The
R: reel
M: 4/4
K: Fmajor
|:CFFc BAB(c|c)cBA BAFC|CFFc BA A/B/(c|c)ffe c2 BA|
CFFc BAB(c|c)cBA BAFC|DFBA AB,CF|1 FG G3 AAG:|2 FG G3 Bce||
|:effc cBAF|ABcf fA A/B/c|[M:3/4]fA/B/ cg B/c/d|ga gf ag|
M:4/4
effc cBAF|ABc(d d)cAF|DFB(A A)B,CF|1 FG G3 Bcd:|2 FG G3 AAG||

